X: 1
T: Between The Water
M: 6/8
L: 1/8
R: jig
K: Gmin
|:D|GAB AG^F|GDC D2D|GAB cBA|BAG A2D|GAB AG^F|GDC D2D|=E^FG ABA|G3 G2:|
|:A|BAG BAG|A2B A2B|BAG BAG|A3 D2A|BAG BAG|A2B A2B|BAG ^F=E^F|G3 G2:|
